X: 1
T: Crazy Creek
T: Tommy Jackson (1983)
O: United States
%D: 1983
N: "TMI.#002265 Key A Major" in upper-right corner
R: reel
Z: 2020 John Chambers <jc:trillian.mit.edu>
S: https://www.facebook.com/groups/Fiddletuneoftheday/ 2020-08-10
S: https://www.facebook.com/groups/Fiddletuneoftheday/photos/
S: "www.traditionalmusic.co.uk" at lower-right
B: Fiddler's Fakebook p.77
M: 4/4
L: 1/8
K: A
CB, |\
"A"A,CEA "F#m"FE^DF | "A"EFAc "E7"BAGB | "A"ABcd cBA2 | "E"e3=g "E7"e2=cd | e=ged "A"=cdcA |
"C#m"=G=cAG "E7"ED=CD | E2 DE=F ED=C | E3=F E2D^D | E2 FGB d=cB |[1 "A"A2AA A2 :|[2 "D"A2AA A2 || [K:=f=c=g]
[K:Am] =F=G |\
"Am"A^cA^G "D"^FE^F^G | "A"A^cA^G "D"FA^G^F | "Am"E^F^GA "Fm"^GED^D | "Am"E^GAB "A"^cBA^G |
A^cA^G  "D"^FE^F^G | "A"A^cA^G "D"^FDE^F | "Fm"^G^F^GA "A"^GE^CD | "C"E^DE^F "Fm"^G4 |]
